X:72
T: Liebeslied eines Landsknechts
N: A0423
O: Europa, Mitteleuropa, Deutschland
N: Souterliedekens ad Ps. 13.
R: Romanze, Ballade, Lied, Kriegslied
M: 4/2
L: 1/4
K: F
z2F2F2F2 | c4c2d4d2 | c4z2
c2 | d2e2f2e2 | d4B4 | A4z2
e2 | f2edc2c2 | d2cBA2B2 | G4F4z2
F2 | c4d2e3fg2 | f2e4d4
d2 | f2edc2c2 | d2cBA2B2 | G4F4

